X:1
T:Baton Rouge, CMD
T:Baton Rouge, CMD
T:William Howard Doane, 1873
T:Public Domain Courtesy of the Cyber Hymnal™
C:William Howard Doane, 1873
Z:Public Domain
Z:Courtesy of the Cyber Hymnal™
%%score ( 1 2 ) ( 3 4 )
L:1/8
Q:1/4=108
M:4/4
K:G
V:1 treble 
V:2 treble 
V:3 bass 
V:4 bass 
V:1
 [CD]2 | [B,G]2 [DG]2 [DF]2 (ED) | [B,G]2 [DA]2 [DB]2 (Bc) | (de) (dB) [DG]2 [DB]2 | [DA]6 [CD]2 | %5
 [B,G]2 [DG]2 [DF]2 (ED) | [B,G]2 [DA]2 [DB]2 (Bc) | [Gd]2 dc [GB]2 [FA]2 | G6 ([DF][EG]) | %9
 [FA]2 [FA]2 ([FA][EG]) ([FA][GB]) | [Ac]3 [GB] [FA]2 (Bd) | [Gd]2 [Gd]2 (ed) ([Ac][GB]) | %12
 [FA]6 (dc) | [GB]2 [GB]2 (cB) (AG) | [EG]2 [Gc]2 !fermata![Ge]2 [Ge]2 | [Gd]2 (BG) [DA]2 (GF) | %16
 [DG]6 |] %17
V:2
 x2 | x6 C2 | x6 G2 | G2 G2 x4 | x8 | x6 C2 | x6 G2 | x2 G2 x4 | G6 x2 | x8 | x6 G2 | x4 G2 x2 | %12
 x6 A2 | x4 =F2 F2 | x8 | x2 D2 x D2 x | x6 |] %17
V:3
 [D,A,]2 | B,2 B,2 [D,A,]2 A,2 | [G,B,]2 [D,F,]2 [G,,G,]2 (G,A,) | (B,C) (B,D) [G,B,]2 [G,,G,]2 | %4
 [D,F,]6 [D,A,]2 | B,2 B,2 [D,A,]2 A,2 | [G,B,]2 [D,F,]2 [G,,G,]2 (G,A,) | %7
 [G,B,]2 [C,E]2 [D,D]2 [D,C]2 | [G,B,]6 [D,A,]2 | [D,D]2 [D,D]2 [D,D]2 [D,D]2 | %10
 [F,D]3 [G,D] [D,D]2 (DA,) | [G,B,]2 [G,B,]2 (CB,) D2 | [D,D]6 [F,D]2 | %13
 [G,D]2 [G,D]2 [G,D]2 (CB,) | [C,C]2 [C,G,]2 !fermata![C,C]2 [C,C]2 | %15
 [D,B,]2 (G,B,) [D,C]2 (B,A,) | [G,,B,]6 |] %17
V:4
 x2 | (G,,A,,) (B,,C,) x (E,F,) x | x6 G,2 | G,2 G,2 x4 | x8 | (G,,A,,) (B,,C,) x (E,F,) x | %6
 x6 G,2 | x8 | x8 | x8 | x6 G,2 | x4 G,2 (F,G,) | x8 | x6 G,2 | x8 | x2 D,2 x D,2 x | x6 |] %17

